client/assets/images/email-providers/email-illustration.svg

<svg width="225" height="90" viewBox="0 0 225 90" fill="none" xmlns="http://www.w3.org/2000/svg">
<mask id="mask0" mask-type="alpha" maskUnits="userSpaceOnUse" x="1" y="0" width="224" height="89">
<rect x="1" width="224" height="89" fill="#c3c4c7"/>
</mask>
<g mask="url(#mask0)">
<circle cx="101" cy="81" r="80" fill="#E6F2E8"/>
</g>
<path d="M13 89L210 89" stroke="#101517"/>
<path d="M7 89H3.241e-07" stroke="#101517"/>
<rect x="92.5" y="21.5" width="98" height="68" rx="5.5" fill="#fff" stroke="#1d2327"/>
<path d="M92 28L130 57" stroke="#101517"/>
<path d="M191 28L153.5 56.414C149.167 59.1201 138.4 62.9086 130 56.414" stroke="#101517"/>
<circle cx="141.5" cy="59.5" r="12" fill="#fff" stroke="#1d2327"/>
<path d="M137.728 59.72C137.728 59.2293 137.819 58.7707 138 58.344C138.192 57.9067 138.448 57.528 138.768 57.208C139.088 56.8773 139.456 56.616 139.872 56.424C140.299 56.232 140.752 56.136 141.232 56.136C141.552 56.136 141.845 56.1787 142.112 56.264C142.379 56.3387 142.608 56.4347 142.8 56.552C142.992 56.6693 143.147 56.792 143.264 56.92C143.381 57.048 143.461 57.16 143.504 57.256L143.568 56.312H144.88V61.72H145.36C145.499 61.72 145.659 61.6773 145.84 61.592C146.032 61.5067 146.213 61.3627 146.384 61.16C146.555 60.9467 146.693 60.6747 146.8 60.344C146.917 60.0027 146.976 59.5813 146.976 59.08C146.976 58.4613 146.864 57.8587 146.64 57.272C146.427 56.6853 146.096 56.1627 145.648 55.704C145.211 55.2453 144.661 54.8773 144 54.6C143.349 54.3227 142.592 54.184 141.728 54.184C140.725 54.184 139.861 54.36 139.136 54.712C138.411 55.0533 137.808 55.496 137.328 56.04C136.859 56.5733 136.512 57.1707 136.288 57.832C136.064 58.4933 135.952 59.1387 135.952 59.768C135.952 60.5253 136.096 61.2347 136.384 61.896C136.672 62.5573 137.067 63.1387 137.568 63.64C138.08 64.1413 138.672 64.536 139.344 64.824C140.016 65.112 140.736 65.256 141.504 65.256C142.123 65.256 142.72 65.16 143.296 64.968C143.872 64.776 144.4 64.5093 144.88 64.168L145.68 65.112C145.115 65.592 144.448 65.944 143.68 66.168C142.912 66.4027 142.16 66.52 141.424 66.52C140.496 66.52 139.616 66.3387 138.784 65.976C137.963 65.624 137.243 65.1387 136.624 64.52C136.016 63.912 135.531 63.1973 135.168 62.376C134.805 61.544 134.624 60.6587 134.624 59.72C134.624 58.8773 134.779 58.0507 135.088 57.24C135.397 56.4187 135.851 55.688 136.448 55.048C137.056 54.3973 137.803 53.8747 138.688 53.48C139.584 53.0853 140.613 52.888 141.776 52.888C142.843 52.888 143.781 53.064 144.592 53.416C145.403 53.768 146.085 54.232 146.64 54.808C147.195 55.384 147.611 56.0453 147.888 56.792C148.176 57.528 148.32 58.2853 148.32 59.064C148.32 59.6827 148.245 60.2373 148.096 60.728C147.947 61.2187 147.739 61.6347 147.472 61.976C147.205 62.3067 146.891 62.5627 146.528 62.744C146.165 62.9147 145.776 63 145.36 63H143.504V62.152C143.451 62.2373 143.365 62.3387 143.248 62.456C143.131 62.5733 142.976 62.6853 142.784 62.792C142.603 62.888 142.384 62.9733 142.128 63.048C141.872 63.1227 141.579 63.16 141.248 63.16C140.736 63.16 140.261 63.0693 139.824 62.888C139.397 62.696 139.029 62.4453 138.72 62.136C138.411 61.816 138.165 61.448 137.984 61.032C137.813 60.616 137.728 60.1787 137.728 59.72ZM139.104 59.64C139.104 59.9493 139.157 60.2373 139.264 60.504C139.381 60.7707 139.536 61 139.728 61.192C139.92 61.384 140.149 61.5387 140.416 61.656C140.683 61.7627 140.976 61.816 141.296 61.816C141.616 61.816 141.909 61.7627 142.176 61.656C142.453 61.5387 142.688 61.384 142.88 61.192C143.083 60.9893 143.237 60.76 143.344 60.504C143.451 60.2373 143.504 59.9493 143.504 59.64C143.504 59.3307 143.451 59.048 143.344 58.792C143.237 58.5253 143.083 58.296 142.88 58.104C142.688 57.912 142.453 57.7627 142.176 57.656C141.909 57.5387 141.616 57.48 141.296 57.48C140.976 57.48 140.683 57.5387 140.416 57.656C140.149 57.7627 139.92 57.912 139.728 58.104C139.536 58.296 139.381 58.5253 139.264 58.792C139.157 59.048 139.104 59.3307 139.104 59.64Z" fill="#5198D9"/>
</svg>

<svg width="225" height="90" fill="none" xmlns="http://www.w3.org/2000/svg"><mask id="a" maskUnits="userSpaceOnUse" x="1" y="0" width="224" height="89"><path fill="#c3c4c7" d="M1 0h224v89H1z"/></mask><g mask="url(#a)"><circle cx="101" cy="81" r="80" fill="#E6F2E8"/></g><path d="M13 89h197M7 89H0" stroke="#101517"/><rect x="92.5" y="21.5" width="98" height="68" rx="5.5" fill="#fff" stroke="#1d2327"/><path d="M92 28l38 29M191 28l-37.5 28.414c-4.333 2.706-15.1 6.495-23.5 0" stroke="#101517"/><circle cx="141.5" cy="59.5" r="12" fill="#fff" stroke="#1d2327"/><path d="M137.728 59.72c0-.49.091-.95.272-1.376.192-.437.448-.816.768-1.136.32-.33.688-.592 1.104-.784.427-.192.88-.288 1.36-.288.32 0 .613.043.88.128.267.075.496.17.688.288.192.117.347.24.464.368.117.128.197.24.24.336l.064-.944h1.312v5.408h.48c.139 0 .299-.043.48-.128.192-.085.373-.23.544-.432.171-.213.309-.485.416-.816.117-.341.176-.763.176-1.264 0-.619-.112-1.221-.336-1.808a4.347 4.347 0 00-.992-1.568c-.437-.459-.987-.827-1.648-1.104-.651-.277-1.408-.416-2.272-.416-1.003 0-1.867.176-2.592.528a5.494 5.494 0 00-1.808 1.328 5.233 5.233 0 00-1.04 1.792 6.016 6.016 0 00-.336 1.936c0 .757.144 1.467.432 2.128a5.616 5.616 0 001.184 1.744 5.754 5.754 0 001.776 1.184 5.425 5.425 0 002.16.432c.619 0 1.216-.096 1.792-.288a5.978 5.978 0 001.584-.8l.8.944a5.367 5.367 0 01-2 1.056 7.696 7.696 0 01-2.256.352 6.535 6.535 0 01-2.64-.544 6.833 6.833 0 01-2.16-1.456 7.002 7.002 0 01-1.456-2.144 6.569 6.569 0 01-.544-2.656c0-.843.155-1.67.464-2.48a6.582 6.582 0 011.36-2.192c.608-.65 1.355-1.173 2.24-1.568.896-.395 1.925-.592 3.088-.592 1.067 0 2.005.176 2.816.528.811.352 1.493.816 2.048 1.392a5.675 5.675 0 011.248 1.984c.288.736.432 1.493.432 2.272 0 .619-.075 1.173-.224 1.664a3.79 3.79 0 01-.624 1.248 2.83 2.83 0 01-.944.768 2.71 2.71 0 01-1.168.256h-1.856v-.848a1.835 1.835 0 01-.256.304 2.08 2.08 0 01-.464.336c-.181.096-.4.181-.656.256a3.145 3.145 0 01-.88.112 3.68 3.68 0 01-1.424-.272 3.67 3.67 0 01-1.104-.752 3.703 3.703 0 01-.736-1.104 3.417 3.417 0 01-.256-1.312zm1.376-.08c0 .31.053.597.16.864.117.267.272.496.464.688.192.192.421.347.688.464.267.107.56.16.88.16.32 0 .613-.053.88-.16a2.119 2.119 0 001.168-1.152c.107-.267.16-.555.16-.864 0-.31-.053-.592-.16-.848a1.914 1.914 0 00-.464-.688 1.995 1.995 0 00-.704-.448 2.163 2.163 0 00-.88-.176c-.32 0-.613.059-.88.176a2.02 2.02 0 00-.688.448 2.227 2.227 0 00-.464.688c-.107.256-.16.539-.16.848z" fill="#5198D9"/></svg>
